web/packages/design/src/ResourceIcon/assets/shopify.svg

<svg width="72" height="72" viewBox="0 0 72 72" fill="none" xmlns="http://www.w3.org/2000/svg">
<g clip-path="url(#clip0_16966_12025)">
<path d="M59.8778 13.8842C59.8352 13.501 59.4946 13.3307 59.2391 13.2881C58.9836 13.2456 53.8744 13.203 53.8744 13.203C53.8744 13.203 49.5741 9.03042 49.1483 8.60465C48.7226 8.17888 47.9136 8.30661 47.573 8.39177C47.573 8.39177 46.764 8.64723 45.4015 9.073C45.1887 8.34919 44.848 7.45507 44.3797 6.56095C42.8469 3.62313 40.6329 2.09036 37.908 2.09036C37.7377 2.09036 37.5248 2.09036 37.3545 2.13294C37.2693 2.04778 37.1842 1.96263 37.099 1.8349C35.9069 0.557583 34.4167 -0.0384967 32.6284 0.00408041C29.1371 0.0892346 25.6883 2.60128 22.8357 7.11446C20.8346 10.2652 19.3444 14.2248 18.9186 17.2904C14.9163 18.5251 12.1063 19.3767 12.0637 19.4192C10.0626 20.0579 9.9774 20.1005 9.72194 22.0164C9.50905 23.4215 4.22949 64.3381 4.22949 64.3381L48.5522 72.002L67.7545 67.2333C67.7545 67.2333 59.9203 14.2248 59.8778 13.8842ZM43.1875 9.75424C42.1657 10.0523 41.0161 10.4355 39.7388 10.8187C39.6962 9.073 39.4833 6.60353 38.6744 4.47468C41.3567 4.9856 42.634 7.966 43.1875 9.75424ZM37.4396 11.5425C35.0979 12.2663 32.5858 13.0327 30.0312 13.8416C30.755 11.1167 32.1175 8.39177 33.778 6.60353C34.4167 5.9223 35.2682 5.19849 36.29 4.77272C37.2693 6.77384 37.4396 9.6265 37.4396 11.5425ZM32.671 2.34582C33.48 2.34582 34.1612 2.51613 34.7573 2.89932C33.8206 3.36767 32.8839 4.09148 32.0323 5.02818C29.8183 7.4125 28.1152 11.0741 27.434 14.6506C25.3052 15.2893 23.2615 15.9279 21.3455 16.524C22.6228 10.9038 27.3063 2.51613 32.671 2.34582Z" fill="#95BF47"/>
<path d="M59.2386 13.2881C58.9831 13.2455 53.8739 13.2029 53.8739 13.2029C53.8739 13.2029 49.5736 9.03035 49.1478 8.60458C48.9775 8.43428 48.7646 8.34912 48.5518 8.34912V72.0019L67.754 67.2333C67.754 67.2333 59.9198 14.2673 59.8773 13.8841C59.7921 13.501 59.4941 13.3306 59.2386 13.2881Z" fill="#5E8E3E"/>
<path d="M37.9081 23.1662L35.6941 31.5113C35.6941 31.5113 33.2246 30.3617 30.2442 30.5746C25.9013 30.8301 25.8587 33.555 25.9013 34.2788C26.1568 38.0256 35.9495 38.8346 36.503 47.5629C36.9288 54.4603 32.8414 59.1438 26.9658 59.527C19.898 59.9528 16.0234 55.8228 16.0234 55.8228L17.5136 49.4788C17.5136 49.4788 21.4307 52.4166 24.5389 52.2463C26.5826 52.1186 27.3064 50.4581 27.2212 49.2659C26.9232 44.4122 18.9187 44.6676 18.4078 36.7057C17.982 29.9785 22.41 23.1662 32.1602 22.5275C35.9921 22.1869 37.9081 23.1662 37.9081 23.1662Z" fill="white"/>
</g>
<defs>
<clipPath id="clip0_16966_12025">
<rect width="72" height="72" fill="white" transform="translate(0 0.00195312)"/>
</clipPath>
</defs>
</svg>

<svg xmlns="http://www.w3.org/2000/svg" width="72" height="72" fill="none" viewBox="0 0 72 72"><g clip-path="url(#clip0_16966_12025)"><path fill="#95bf47" d="M59.878 13.884c-.043-.383-.383-.553-.639-.596-.255-.042-5.365-.085-5.365-.085s-4.3-4.173-4.726-4.598c-.425-.426-1.234-.298-1.575-.213 0 0-.809.255-2.172.681a14 14 0 0 0-1.021-2.512c-1.533-2.938-3.747-4.47-6.472-4.47-.17 0-.383 0-.553.042a2 2 0 0 1-.256-.298C35.907.558 34.417-.038 32.629.005c-3.492.084-6.94 2.596-9.793 7.11-2.001 3.15-3.492 7.11-3.917 10.175-4.003 1.235-6.813 2.087-6.855 2.13-2.001.638-2.087.68-2.342 2.596-.213 1.406-5.493 42.322-5.493 42.322l44.323 7.664 19.202-4.769s-7.834-53.008-7.876-53.349m-16.69-4.13c-1.022.298-2.172.681-3.45 1.065-.042-1.746-.255-4.215-1.064-6.344 2.683.51 3.96 3.491 4.514 5.28m-5.748 1.789c-2.342.723-4.854 1.49-7.409 2.299.724-2.725 2.087-5.45 3.747-7.238.639-.682 1.49-1.406 2.512-1.831.98 2 1.15 4.854 1.15 6.77m-4.77-9.198c.809 0 1.49.17 2.086.553-.936.469-1.873 1.192-2.725 2.13-2.214 2.383-3.917 6.045-4.598 9.622-2.129.638-4.172 1.277-6.088 1.873 1.277-5.62 5.96-14.008 11.325-14.178"/><path fill="#5e8e3e" d="M59.239 13.288c-.256-.043-5.365-.085-5.365-.085s-4.3-4.173-4.726-4.598a.84.84 0 0 0-.596-.256v63.653l19.202-4.769s-7.834-52.966-7.877-53.349a.76.76 0 0 0-.638-.596"/><path fill="#fff" d="m37.908 23.166-2.214 8.345s-2.47-1.15-5.45-.936c-4.343.255-4.385 2.98-4.343 3.704.256 3.747 10.049 4.556 10.602 13.284.426 6.897-3.662 11.58-9.537 11.964-7.068.426-10.943-3.704-10.943-3.704l1.49-6.344s3.918 2.938 7.026 2.767c2.044-.127 2.767-1.788 2.682-2.98-.298-4.854-8.302-4.598-8.813-12.56-.426-6.728 4.002-13.54 13.752-14.179 3.832-.34 5.748.64 5.748.64"/></g><defs><clipPath id="clip0_16966_12025"><path fill="#fff" d="M0 .002h72v72H0z"/></clipPath></defs></svg>
